X:264
T:score64
L:1/8
Q:1/4=96
M:1/4
I:linebreak $
K:F
 z (c |[M:4/4] c2 A>c f3) (A | c>B B>A B3) (B |$ A3/2B/4A/4 GA cBAG | F3 G/A/ G2) z3/2 (c/ | %5
 c2 A>c f3) (A |$ c>B B>A B3) (B | Afed c=BAB |[M:3/4] d4 c2) |] %9
